storage/app/icons/phosphoricons/bold/dresser-bold.svg

<svg xmlns="http://www.w3.org/2000/svg" fill="currentColor" viewBox="0 0 256 256"><path d="M148 176a12 12 0 0 1-12 12h-16a12 12 0 0 1 0-24h16a12 12 0 0 1 12 12m-28-84h16a12 12 0 0 0 0-24h-16a12 12 0 0 0 0 24m100-52v176a20 20 0 0 1-20 20H56a20 20 0 0 1-20-20V40a20 20 0 0 1 20-20h144a20 20 0 0 1 20 20M60 44v72h136V44Zm136 168v-72H60v72Z"/></svg>

<svg xmlns="http://www.w3.org/2000/svg" viewBox="0 0 256 256" fill="currentColor"><path d="M148,176a12,12,0,0,1-12,12H120a12,12,0,0,1,0-24h16A12,12,0,0,1,148,176ZM120,92h16a12,12,0,0,0,0-24H120a12,12,0,0,0,0,24ZM220,40V216a20,20,0,0,1-20,20H56a20,20,0,0,1-20-20V40A20,20,0,0,1,56,20H200A20,20,0,0,1,220,40ZM60,44v72H196V44ZM196,212V140H60v72Z"/></svg>
